actions/16/document-new.svg

<?xml version="1.0" encoding="UTF-8" standalone="no"?>
<!-- Created with Inkscape (http://www.inkscape.org/) -->

<svg
   xmlns:svg="http://www.w3.org/2000/svg"
   xmlns="http://www.w3.org/2000/svg"
   xmlns:xlink="http://www.w3.org/1999/xlink"
   version="1.0"
   width="16"
   height="16"
   id="svg3151">
  <defs
     id="defs3153">
    <linearGradient
       id="linearGradient3931">
      <stop
         id="stop3933"
         style="stop-color:#8d8f8a;stop-opacity:1"
         offset="0" />
      <stop
         id="stop3935"
         style="stop-color:#c1c1c1;stop-opacity:1"
         offset="1" />
    </linearGradient>
    <linearGradient
       x1="-51.786404"
       y1="50.786446"
       x2="-51.786404"
       y2="2.9062471"
       id="linearGradient4547"
       xlink:href="#linearGradient3931"
       gradientUnits="userSpaceOnUse"
       gradientTransform="matrix(0.3000362,0,0,0.3120485,21.157141,-0.3741276)" />
    <linearGradient
       id="linearGradient3600">
      <stop
         id="stop3602"
         style="stop-color:#f4f4f4;stop-opacity:1"
         offset="0" />
      <stop
         id="stop3604"
         style="stop-color:#dbdbdb;stop-opacity:1"
         offset="1" />
    </linearGradient>
    <linearGradient
       x1="25.132275"
       y1="6.7287393"
       x2="25.132275"
       y2="47.013336"
       id="linearGradient4545"
       xlink:href="#linearGradient3600"
       gradientUnits="userSpaceOnUse"
       gradientTransform="matrix(0.3715633,0,0,0.3334383,-0.9175205,-0.0025171)" />
    <linearGradient
       id="linearGradient4559">
      <stop
         id="stop4561"
         style="stop-color:silver;stop-opacity:1"
         offset="0" />
      <stop
         id="stop4563"
         style="stop-color:#949492;stop-opacity:1"
         offset="1" />
    </linearGradient>
    <linearGradient
       x1="17.288921"
       y1="2.184907"
       x2="15.179585"
       y2="5.8214641"
       id="linearGradient4565"
       xlink:href="#linearGradient4559"
       gradientUnits="userSpaceOnUse"
       gradientTransform="matrix(0.6844293,0,0,0.6820072,-0.2131519,0.1569169)" />
    <linearGradient
       id="linearGradient8589">
      <stop
         id="stop8591"
         style="stop-color:#fefefe;stop-opacity:1"
         offset="0" />
      <stop
         id="stop8593"
         style="stop-color:#cbcbcb;stop-opacity:1"
         offset="1" />
    </linearGradient>
    <linearGradient
       x1="32.892288"
       y1="8.0590115"
       x2="36.358372"
       y2="5.4565363"
       id="linearGradient4543"
       xlink:href="#linearGradient8589"
       gradientUnits="userSpaceOnUse"
       gradientTransform="matrix(0.3707081,0,0,0.3548465,-0.8566575,-0.04895116)" />
    <linearGradient
       id="linearGradient3945">
      <stop
         id="stop3947"
         style="stop-color:#ecf5b6;stop-opacity:1"
         offset="0" />
      <stop
         id="stop3949"
         style="stop-color:#9fba48;stop-opacity:1"
         offset="1" />
    </linearGradient>
    <linearGradient
       x1="24.103895"
       y1="15.168831"
       x2="24.103895"
       y2="32.485161"
       id="linearGradient3140"
       xlink:href="#linearGradient3945"
       gradientUnits="userSpaceOnUse"
       gradientTransform="matrix(0.3280315,0,0,0.3257096,4.4449642,4.5320245)" />
  </defs>
  <g
     id="layer1">
    <path
       d="m 1.4976268,0.49762721 c 2.980045,0 4.9376418,0 7.9176887,0 0.522766,0.16184396 4.3536885,2.61362219 5.0870585,3.89029659 0,3.907463 0,7.2069842 0,11.1144502 -4.334914,0 -8.6698338,0 -13.0047472,0 0,-5.001584 0,-10.0031638 0,-15.00474679 z"
       id="rect2594"
       style="fill:url(#linearGradient4545);fill-opacity:1;stroke:url(#linearGradient4547);stroke-width:0.9952535;stroke-linecap:butt;stroke-linejoin:round;stroke-miterlimit:4;stroke-opacity:1;stroke-dasharray:none;stroke-dashoffset:0;display:inline" />
    <path
       d="M 9.5,0.4979205 C 9.5,2.041279 9.5,4.5 9.5,4.5 c 0,0 4.080603,0 5.00208,0 0,-1.9018156 -3.00574,-4.0020795 -5.00208,-4.0020795 z"
       id="path12038"
       style="fill:url(#linearGradient4543);fill-opacity:1;fill-rule:evenodd;stroke:url(#linearGradient4565);stroke-width:0.9952535;stroke-linecap:butt;stroke-linejoin:round;stroke-miterlimit:4;stroke-opacity:1;stroke-dasharray:none;display:inline" />
    <path
       d="m 10.5,10.5 0,-1.9924685 3,0 0,1.9924685 1.992468,0 0,3 -1.992468,0 0,1.992468 -3,0 0,-1.992468 -1.9924682,0 0,-3 1.9924682,0 z"
       id="path2262"
       style="fill:url(#linearGradient3140);fill-opacity:1;fill-rule:evenodd;stroke:#699536;stroke-width:1.01506352;stroke-linecap:butt;stroke-linejoin:round;stroke-miterlimit:4;stroke-opacity:1;stroke-dasharray:none;display:inline" />
  </g>
</svg>

<?xml version="1.0" encoding="UTF-8" standalone="no"?>
<!-- Created with Inkscape (http://www.inkscape.org/) -->
<svg
   xmlns:dc="http://purl.org/dc/elements/1.1/"
   xmlns:cc="http://creativecommons.org/ns#"
   xmlns:rdf="http://www.w3.org/1999/02/22-rdf-syntax-ns#"
   xmlns:svg="http://www.w3.org/2000/svg"
   xmlns="http://www.w3.org/2000/svg"
   xmlns:xlink="http://www.w3.org/1999/xlink"
   xmlns:sodipodi="http://sodipodi.sourceforge.net/DTD/sodipodi-0.dtd"
   xmlns:inkscape="http://www.inkscape.org/namespaces/inkscape"
   width="16"
   height="16"
   id="svg3151"
   sodipodi:version="0.32"
   inkscape:version="0.46"
   version="1.0"
   sodipodi:docname="document-new.svg"
   inkscape:output_extension="org.inkscape.output.svg.inkscape">
  <defs
     id="defs3153">
    <linearGradient
       id="linearGradient3931">
      <stop
         id="stop3933"
         offset="0"
         style="stop-color:#8d8f8a;stop-opacity:1" />
      <stop
         id="stop3935"
         offset="1"
         style="stop-color:#c1c1c1;stop-opacity:1;" />
    </linearGradient>
    <linearGradient
       inkscape:collect="always"
       xlink:href="#linearGradient3931"
       id="linearGradient4547"
       gradientUnits="userSpaceOnUse"
       gradientTransform="matrix(0.3000362,0,0,0.3120485,21.157141,-0.3741276)"
       x1="-51.786404"
       y1="50.786446"
       x2="-51.786404"
       y2="2.9062471" />
    <linearGradient
       id="linearGradient3600"
       inkscape:collect="always">
      <stop
         id="stop3602"
         offset="0"
         style="stop-color:#f4f4f4;stop-opacity:1" />
      <stop
         id="stop3604"
         offset="1"
         style="stop-color:#dbdbdb;stop-opacity:1" />
    </linearGradient>
    <linearGradient
       inkscape:collect="always"
       xlink:href="#linearGradient3600"
       id="linearGradient4545"
       gradientUnits="userSpaceOnUse"
       gradientTransform="matrix(0.3715633,0,0,0.3334383,-0.9175205,-2.5170988e-3)"
       x1="25.132275"
       y1="6.7287393"
       x2="25.132275"
       y2="47.013336" />
    <linearGradient
       id="linearGradient4559">
      <stop
         style="stop-color:#c0c0c0;stop-opacity:1"
         offset="0"
         id="stop4561" />
      <stop
         style="stop-color:#949492;stop-opacity:1;"
         offset="1"
         id="stop4563" />
    </linearGradient>
    <linearGradient
       inkscape:collect="always"
       xlink:href="#linearGradient4559"
       id="linearGradient4565"
       x1="17.288921"
       y1="2.184907"
       x2="15.179585"
       y2="5.8214641"
       gradientUnits="userSpaceOnUse"
       gradientTransform="matrix(0.6844293,0,0,0.6820072,-0.2131519,0.1569169)" />
    <linearGradient
       id="linearGradient8589">
      <stop
         style="stop-color:#fefefe;stop-opacity:1"
         offset="0"
         id="stop8591" />
      <stop
         style="stop-color:#cbcbcb;stop-opacity:1;"
         offset="1"
         id="stop8593" />
    </linearGradient>
    <linearGradient
       inkscape:collect="always"
       xlink:href="#linearGradient8589"
       id="linearGradient4543"
       gradientUnits="userSpaceOnUse"
       gradientTransform="matrix(0.3707081,0,0,0.3548465,-0.8566575,-4.8951158e-2)"
       x1="32.892288"
       y1="8.0590115"
       x2="36.358372"
       y2="5.4565363" />
    <linearGradient
       id="linearGradient3945">
      <stop
         style="stop-color:#ecf5b6;stop-opacity:1;"
         offset="0"
         id="stop3947" />
      <stop
         style="stop-color:#9fba48;stop-opacity:1;"
         offset="1"
         id="stop3949" />
    </linearGradient>
    <linearGradient
       inkscape:collect="always"
       xlink:href="#linearGradient3945"
       id="linearGradient3140"
       gradientUnits="userSpaceOnUse"
       gradientTransform="matrix(0.3280315,0,0,0.3257096,4.4449642,4.5320245)"
       x1="24.103895"
       y1="15.168831"
       x2="24.103895"
       y2="32.485161" />
  </defs>
  <sodipodi:namedview
     id="base"
     pagecolor="#ffffff"
     bordercolor="#666666"
     borderopacity="1.0"
     inkscape:pageopacity="0.0"
     inkscape:pageshadow="2"
     inkscape:zoom="11.197802"
     inkscape:cx="16"
     inkscape:cy="16"
     inkscape:current-layer="layer1"
     showgrid="true"
     inkscape:grid-bbox="true"
     inkscape:document-units="px"
     inkscape:window-width="640"
     inkscape:window-height="720"
     inkscape:window-x="800"
     inkscape:window-y="88" />
  <metadata
     id="metadata3156">
    <rdf:RDF>
      <cc:Work
         rdf:about="">
        <dc:format>image/svg+xml</dc:format>
        <dc:type
           rdf:resource="http://purl.org/dc/dcmitype/StillImage" />
      </cc:Work>
    </rdf:RDF>
  </metadata>
  <g
     id="layer1"
     inkscape:label="Layer 1"
     inkscape:groupmode="layer">
    <path
       style="display:inline;fill:url(#linearGradient4545);fill-opacity:1;stroke:url(#linearGradient4547);stroke-width:0.99525350000000001;stroke-linecap:butt;stroke-linejoin:round;stroke-miterlimit:4;stroke-dasharray:none;stroke-dashoffset:0;stroke-opacity:1"
       d="M 1.4976268,0.49762721 C 4.4776718,0.49762721 6.4352686,0.49762721 9.4153155,0.49762721 C 9.9380815,0.65947117 13.769004,3.1112494 14.502374,4.3879238 C 14.502374,8.2953868 14.502374,11.594908 14.502374,15.502374 C 10.16746,15.502374 5.8325402,15.502374 1.4976268,15.502374 C 1.4976268,10.50079 1.4976268,5.4992102 1.4976268,0.49762721 z"
       id="rect2594"
       sodipodi:nodetypes="cccccc" />
    <path
       style="display:inline;fill:url(#linearGradient4543);fill-opacity:1;fill-rule:evenodd;stroke:url(#linearGradient4565);stroke-width:0.99525350000000001;stroke-linecap:butt;stroke-linejoin:round;stroke-miterlimit:4;stroke-dasharray:none;stroke-opacity:1"
       d="M 9.5,0.4979205 C 9.5,2.041279 9.5,4.5 9.5,4.5 C 9.5,4.5 13.580603,4.5 14.50208,4.5 C 14.50208,2.5981844 11.49634,0.4979205 9.5,0.4979205 z"
       id="path12038"
       sodipodi:nodetypes="cccc" />
    <path
       sodipodi:nodetypes="ccccccccccccc"
       id="path2262"
       d="M 10.5,10.5 L 10.5,8.5075315 L 13.5,8.5075315 L 13.5,10.5 L 15.492468,10.5 L 15.492468,13.5 L 13.5,13.5 L 13.5,15.492468 L 10.5,15.492468 L 10.5,13.5 L 8.5075318,13.5 L 8.5075318,10.5 L 10.5,10.5 z"
       style="display:inline;fill:url(#linearGradient3140);fill-opacity:1;fill-rule:evenodd;stroke:#699536;stroke-width:1.01506352000000000;stroke-linecap:butt;stroke-linejoin:round;stroke-miterlimit:4;stroke-dasharray:none;stroke-opacity:1" />
  </g>
</svg>
